packages/dnb-ui-lib/assets/icons/bankid_mobile_medium.svg

<svg width="24" height="24" viewBox="0 0 24 24" fill="none" xmlns="http://www.w3.org/2000/svg">
<path fill-rule="evenodd" clip-rule="evenodd" d="M9.75 20C9.75 20.553 9.30171 21 8.75 21C8.19829 21 7.75 20.553 7.75 20C7.75 19.447 8.19829 19 8.75 19C9.30171 19 9.75 19.447 9.75 20Z" fill="black"/>
<path d="M15.5 5V2C15.5 1.44772 15.0523 1 14.5 1H3C2.44772 1 2 1.44772 2 2V22C2 22.5523 2.44772 23 3 23H14.5C15.0523 23 15.5 22.5523 15.5 22V17" stroke="black" stroke-width="1.5" stroke-linecap="round" stroke-linejoin="round"/>
<path d="M10 7.5H12.4M10 14.5H12.4M10 12.0769H12.4M19.6 7.5H22M19.6 14.5H22M19.6 9.65385H22M14.8 9.65385H17.2M14.8 12.0769H17.2" stroke="black" stroke-width="1.5" stroke-linecap="round"/>
</svg>

<svg width="24" height="24" viewBox="0 0 24 24" fill="none" xmlns="http://www.w3.org/2000/svg"><path fill-rule="evenodd" clip-rule="evenodd" d="M9.75 20a1 1 0 11-2 0 1 1 0 012 0z" fill="#000"/><path d="M15.5 5V2a1 1 0 00-1-1H3a1 1 0 00-1 1v20a1 1 0 001 1h11.5a1 1 0 001-1v-5" stroke="#000" stroke-width="1.5" stroke-linecap="round" stroke-linejoin="round"/><path d="M10 7.5h2.4m-2.4 7h2.4M10 12.077h2.4M19.6 7.5H22m-2.4 7H22m-2.4-4.846H22m-7.2 0h2.4m-2.4 2.423h2.4" stroke="#000" stroke-width="1.5" stroke-linecap="round"/></svg>
